X:1
T:Title
%%score 1 2 3 4
L:1/8
M:4/4
K:F
V:1 treble nm="Part_1"
V:2 treble-8 nm="Part_2"
V:3 bass nm="Part_3"
V:4 bass nm="Part_4"
V:1
 A6 B2 | G8 | B6 c2 | A4 B2 A2 | G4 Gccc | cc c4 GG | A4 z BBB | BB B2 ^F2 G2- | G2 ^F2 G4 | %9
w: De\-- *|us|De- *|us De- us|me- us in Te spe-|ra- vi sal- vum me|fac in Te soe-|ra- vi sal- * vum|* me fac|
 B2 A2 G4- | G4 G4 | c2 B2 A4- | A4 A4 | z4 z BBB | BB d4 AA | B4 z2 B/A/B/G/ | A3 A A4 | %17
w: De- us me-|* us|De- us me-|* us|in Te spe-|ra- vi sal- vum me|fac ex * * *|om- ni- bus|
 z2 d3 d c2- | c2 BA A4 | z8 | c2 B2 A4 | A4 B2 A2 | G4 G4 | A2 G2 ^F4 | ^F4 G2 F2 | E4 F4- | %26
w: per- se- quen-|* ti- bus me||De- us me-|us De- us|me- us|De- us me-|us De- us|me- *|
 F4 E4 | F8 |: z4 z2 c2 | A4 A4 | z GAB c3 F | G8 | z8 | z8 | z8 | =B4 B4 | B4 B4 | B4 B4 | B4 B4 | %39
w: |us|In-|ten- de|in- ten- de Do- mi-|ne||||In- ten-|de- Do-|mi- ne|vo- ci|
 G4 G2 AA | A4 G2 G2 | F8 | d4 d4 | d4 d4 | d4 d4 | d4 d4 | cccB B2 AA | =B8 | z2 G4 G2 | %49
w: me- ac qua cla-|ma- vi ad|Te|In- ten-|de Do-|mi- ne|vo- ci|me- ac qua cla- ma- vi ad|Te|qui- a|
 c4 z2 c2 | B2 A2 G4 | A8 | z8 | z2 c2 B<A c<B | A4 G4 | z8 | z4 z2 d2- | d2 d2 d2 d2 | %58
w: Tu es|De- us me-|us||Sal- va- * tor *|me- us||qui-|* a Tu es|
 c2 d2 B2 Bc | A6 A2 | A8 | =B8 | z2 B4 B2 | B2 c2 A2 AB | G6 G2 | G8 | A8 :| %67
w: De- us me- us Sal-|va- tor|me-|us|Tu es|De- us me- us Sal-|va- tor|me-|us|
V:2
 z4 f4- | f2 g2 e4 | z4 g4- | g2 a2 ^f4 | g2 f2 e4- | e4 e4 | a2 g2 ^f4 | ^fddd dd d2- | %8
w: De\--|* * us|De-|* * us|De- us me-|* us|De- us me-|us in Te spexa- * vi sal-|
 d2 AA =B4 | z4 z _eee | _ee e4 =BB | c4 z fff | ff f4 ^cc | d4 z ddd | dd f4 cc | d4 z2 g/f/g/e/ | %16
w: * vum me fac|in Te spe-|ra- vi sal- vum me|fac in Te spe-|ra- vi sal- vum me|fac in Te spe-|ra- vi sal- vum me|fac ex * * *|
 ^f3 f f4 | z8 | z2 d2 d2 c=B | =B8 | z8 | z2 d2 d2 cB | B4 z2 c2 | c2 cA A>AB>c | d8 | %25
w: om- ni- bus||et li- be- ra|me||et li- be- ra|me et|li- be- ra me * * *||
 z2 c2 c2 BA | A2 GF G4 | F8 |: z8 | z8 | z8 | z4 z2 g2 | e4 e4 | z def g3 c | d8 | d4 d4 | d4 d4 | %37
w: et li- be- ra|me De- us me-|us||||In-|ten- de|in- ten- de Do- mi-|ne|In- ten-|de Do-|
 d4 d4 | d4 d4 | e4 e2 cc | d6 cG | A8 | f4 f4 | f4 f4 | f4 f4 | f4 f4 | ffff g2 g^f | g8 | %48
w: mi- ne|vo- ci|me- ac qua cla-|ma- vi ad|Te|In- ten-|de Do-|mi- ne|vo- ci|me- ac qua cla- ma- vi ad|Te|
 z2 e4 e2 | f4 z2 f2 | g2 f2 f2 e2 | f4 z2 f2 | _e<d f<e d4 | c4 z4 | z8 | z8 | z4 z2 f2- | %57
w: qui- a|Tu es|De- us me- *|us Sal-|va- * tor * me-|us|||qui-|
 f2 f2 f2 f2 | f2 f2 g2 ga | ^f3 f g4- | g4 ^f4 | g8 | z2 g4 g2 | g2 a2 f2 fg | e3 e f4- | f4 e4 | %66
w: * a Tu es|De- us me- us Sal-|va- tor me-||us|Tu es|De- us me- us Sal-|va- tor me-||
 f8 :| %67
w: us|
V:3
 F,8 | C,8 | G,8 | D,8 | _E,2 D,2 C,4- | C,4 C,4 | F,2 E,2 D,4- | D,4 D,4 | z8 | z4 z C,C,C, | %10
w: De-|us|De-|us|De- us me-|* us|De- us me-|* us||in Te spe-|
 C,C, C,2 G,2 G,,2 | C,4 z D,D,D, | D,D, D,2 A,2 A,,2 | D,4 z B,,B,,B,, | B,,B,, B,,2 F,2 F,,2 | %15
w: ra- vi sal- vum me|fac in Te spe-|ra- vi sal- vum me|fac in Te spe-|ra- vi sal- vum me|
 B,,4 z2 G,,2 | D,3 D, D,4 | D,3 D, E,3 E, | ^F,2 G,4 F,2 | G,2 G,2 G,2 F,E, | E,4 F,2 E,2 | %21
w: fac ex|om- ni- bus|per- se- quen- ti-|bus * *|me et li- be- ra|me De- us|
 D,4 D,4 | _E,2 D,2 C,4 | C,4 D,2 C,2 | =B,,8 | C,8- | C,8 | F,,8 |: z8 | z8 | z8 | z8 | z8 | z8 | %34
w: me- us|De- us me-|us De- us|me||||||||||
 z8 | G,4 G,4 | G,4 G,4 | G,4 G,4 | G,4 G,4 | C,4 C,2 F,F, | F,4 _E,2 E,2 | D,8 | B,,4 B,,4 | %43
w: |In- ten-|de Do-|mi- ne|vo- ci|me- ac qua cla-|ma- vi ad|Te|In- ten-|
 B,,4 B,,4 | B,,4 B,,4 | B,,4 B,,4 | F,F,F,D, _E,2 C,D, | G,,8 | z2 C,4 C,2 | A,,4 z2 A,,2 | %50
w: de Do-|mi- ne|vo- ci|me- ac qua cla- ma- vi ad|Te|qui- a|Tu es|
 B,,2 B,,2 C,4 | F,,8 | z8 | z8 | z4 z2 G,2 | F,<E, F,<D, A,2 A,,2 | D,4 z2 B,,2- | %57
w: De- us me-|us|||Sal-|va- * tor * me- *|us qui-|
 B,,2 B,,2 B,,2 B,,2 | F,2 D,2 _E,2 E,C, | D,4 C,4 | D,8 | G,,8 | z2 _E,4 E,2 | %63
w: * a tu es|De- us me- us Sal-|va- tor|me-|us|Tu es|
 _E,2 C,2 D,2 D,B,, | C,4 B,,4 | C,8 | F,,8 :| %67
w: De- us me- us Sal-|va- tor|me-|us|
V:4
 F,8 | C,6 B,,A,, | G,8 | D,8 | _E,2 D,2 C,4- | C,4 C,4 | F,2 E,2 D,4- | D,4 D,4 | D,4 G,,4- | %9
w: |||||||||
 G,,4 C,4- | C,4 G,,4 | C,4 F,D,D,D, | D,4 A,,4 | D,4 z B,,B,,B,, | B,,4 F,,4 | B,,6 G,,2 | %16
w: |||||||
 D,4 D,4 | D,3 D, E,4 | ^F,2 G,4 F,2 | G,2 G,2 G,2 F,2 | E,4 F,2 E,2 | D,4 D,4 | _E,2 D,2 C,4 | %23
w: |A. jIGIO *||||||
 C,4 D,2 C,2 | =B,,8 | C,8- | C,8 | F,,8 |: F,,8 | F,,8 | F,,8 | C,8 | C,8 | C,8 | G,,8 | G,4 G,4 | %36
w: |||||||||||||
 G,4 G,4 | G,4 G,4 | G,4 G,4 | C,4 C,2 F,F, | F,4 _E,2 E,2 | D,8 | B,,4 B,,4 | B,,4 B,,4 | %44
w: |||A. Grandi * jIGIO|jNr. Il jBeispiel||||
 B,,4 B,,4 | B,,4 B,,4 | F,F,F,D, _E,2 C,D, | G,,8 | C,6 C,2 | A,,6 A,,2 | B,,4 C,4 | F,,8 | %52
w: ||||||||
 C,4 G,,4 | C,4 _E,2 C,2 | D,4 G,,2 G,2 | F,2 D,2 A,4 | D,4 B,,4- | B,,2 B,,2 B,,4 | %58
w: ||||||
 F,2 D,2 _E,3 C, | D,4 C,4 | D,8 | G,,8 | _E,6 E,2 | _E,2 C,2 D,2 D,B,, | C,4 B,,4 | C,8 | F,,8 :| %67
w: |||||* * Grandi * jIGIO|jNr. jBeispiel|||

